X:1
T:James Gibb editions
T:Praise, my soul - Goss
T:#
%%score 1 ( 2 3 ) ( 4 5 )
L:1/8
Q:1/4=180
M:2/2
K:D
V:1 treble nm="Midi_74"
V:2 treble nm="Midi_20"
V:3 treble 
V:4 bass nm="Midi_20"
V:5 bass 
V:1
"^Praise my soul (87. 87. 87)""^John Goss\n(1800-80)""^Praise, my soul" A4 A4 | A4 A4 | d4 c4 | %3
w: ~~Praise, my|soul, the|King of|
 B8 | A8 || G4 F4 | B4 A4 | F4 G4 | E8 ||[M:2/2] F4 F4 | F4 F4 | B4 A4 | A4 ^G4 || A4 B4 | c4 d4 | %15
w: hea-|ven,|To his|feet thy|tri- bute|bring;|Ran- somed,|healed, re-|stored, for-|gi- ven,|Who like|me his|
 F4 ^G4 | A8 || d4 c4 | B4 A4 | d4 c4 | B4 A4 || B4 A4 | G4 E4 | D4 C4 | D8 ||[M:2/2] z8 | z8 | %27
w: praise should|sing?|Al- le-|lu- ia!|Al- le-|lu- ia!|Praise the|e- ver-|last- ing|King.|||
 z8 | z8 | z8 || z8 | z8 | z8 | z8 |[M:2/2] z8 | z8 | z8 | z8 || z8 | z8 | z8 | z8 |[M:2/2] z8 | %43
w: ||||||||||||||||
 z8 | z8 | z8 || z8 | z8 | z8 | z8 |[M:2/2]"^Trebles" A4 A4 | A4 A4 | d4 c4 | B8 | A8 || G4 F4 | %56
w: |||||||Fa- ther-|like, he|tends and|spares|us,|Well our|
 B4 A4 | F4 G4 | E8 || F4 F4 | F4 F4 | B4 A4 | A4 ^G4 || A4 B4 | c4 d4 | F4 ^G4 | A8 || d4 c4 | %68
w: fee- ble|frame he|knows;|In his|hands he|gent- ly|bears us,|Res- cues|us from|all our|foes:|Al- le-|
 B4 A4 | d4 c4 | B4 A4 || B4 A4 | G4 E4 | D4 C4 | D8 ||"^Unison" A4 A4 | A4 A4 | d4 c4 | B8 | A8 || %80
w: lu- ia!|Al- le-|lu- ia!|Wide- ly|as his|mer- cy|flows.|An- gels,|help us|to a-|dore|him;|
 G4 F4 | B4 A4 | F4 G4 | E8 || F4 F4 | F4 F4 | B4 A4 | A4 ^G4 || A4 B4 | c4 d4 | F4 ^G4 | A8 || %92
w: Ye be-|hold him|face to|face;|Sun and|moon, bow|down be-|fore him,|Dwel- lers|all in|time and|space:|
 d4 c4 | B4 A4 | d4 c4 | B4 A4 ||[Q:1/4=177] B4[Q:1/4=173] A4 |[Q:1/4=169] G4[Q:1/4=164] E4 | %98
w: Al- le-|lu- ia!|Al- le-|lu- ia!|Praise with|us the|
[Q:1/4=160] D4[Q:1/4=156] C4 |[Q:1/4=155] D8 |] %100
w: God of|grace.|
V:2
 x8 | x8 | d4 c4 | B8 | A8 || G4 F4 | [DB]4 [CA]4 | [DF]4 [B,EG]4 | [A,CE]8 ||[M:2/2] F8- | F8 | %11
 B4 A4 | [DA]4 [=F^G]4 || A4 B4 | c4 d4 | F4 ^G4 | A8 || (d4 c4 | B4 A4) | (d4 c4 | B4 A4) || %21
 B4 A4 | [EG]4 E4 | D4 C4 | D8 || A4 A4 | A4 A4 | d4 c4 | B8 | A8 || G4 F4 | B4 A4 | F4 G4 | E8 | %34
 F4 F4 | F4 F4 | B4 A4 | A4 ^G4 || A4 B4 | c4 d4 | F4 ^G4 | A8 | d4 c4 | B4 A4 | d4 c4 | B4 A4 || %46
 B4 A4 | G4 E4 | D4 C4 | D8 | A8- | A8 | d4 c4 | B8 | A8 || [EG]4 [A,DF]4 | [B,EB]4- [=CEA]4 | %57
 [EF]4 [B,^DG]4 | E8 || [DF]8- | [EF]8 | [DB]4 [^DA-]4 | A4 ^G4 || A4 [DEB]4- | [CEc]4 d4 | %65
 F4 ^G4 | x8 || (d4 c4 | B4 A4) | (d4 c4 | B4 A4) || B4 A4 | [B,EG]4 [_B,E]4 | D4 C4 | D8 || A8- | %76
 A8 | d4 c4 | B8 | A8 || G4 F4 | B4 A4 | F4 G4 | E8 || F8- | F8 | [B,B]4 [CA]4- | [DA]4 [B,^G]4 || %88
 [A,EA]4- [EB]4 | [Ec]4 [Dd]4 | F4 ^G4 | A8 || (d4 c4 | B4 A4) | (d4 c4 | B4 [GA]4) || B4 A4 | %97
 G4 [B,E]4 | D4 C4 | D8 |] %100
V:3
 [DA]8- | [CA]8 | [DA]8 | [DA]4 [EG]4 | [DF]8- || D8 | x8 | x8 | x8 ||[M:2/2] [^A,C]8 | %10
w: ||||||||||
 B,4 [^A,E]4 | [B,D]8- | B,8 || E8- | E4 D4- | D8 | C8 || D8 | [EG]8 | [DF]8 | [CG]8 || [=C^DF]8 | %22
w: ||||||||||||
 B,8 | A,8- | A,8 || D4 D4 | C4 C4 | D4 A4 | (A4 G4) | F8 || D4 D4 | D4 D4 | D4 E4 | C8 | C4 E4 | %35
w: |||~~Praise him|for his|grace and|fa\- *|vour|To our|fa- thers|in di-|stress;|Praise him|
 D4 C4 | B,4 B,4 | D4 D4 || C4 E4 | E4 D4 | D4 D4 | C8 | D6 D2 | D4 C4 | D4 (E2 F2) | G4 G4 || %46
w: still the|same as|e- ver,|Slow to|chide and|swift to|bless:|Al- le-|lu- ia!|Al- le\- *|lu- ia!|
 F4 E4 | D4 B,4 | A,4 A,4 | A,8 | F8- | F8 | F8 | F4 [C-^E]4 | [CF]4 [B,^D]4- || B,4 x4 | x8 | x8 | %58
w: Glo- rious\_|in his|faith- ful-|ness.|||||||||
 B,4 [A,^C]4- || A,8 | ^A,8 | B,8- | [B,E]8 || [A,E]4 x4 | x4 D4- | D8 | [CA]8- || [DA]8 | [EG]8 | %69
w: |||||||||||
 [DF]8 | E8 || [=CF]8 | x8 | A,8- | A,8 || [DF]8- | [CF]8 | [DF]8 | [DF]4 E2- [DE]2 | [CE]4 D4 || %80
w: |||||||||||
 E4 D4- | D8 | D4 E4 | C8- || [^A,C]8 | [^A,E]4 [A,C]4 | x8 | x8 || x8 | x8 | D8 | C8 || D8- | %93
w: |||||||||||||
 D4 C4 | D8- | D4 x4 || [D-F]8 | D4 x4 | A,4- A,4 | A,8 |] %100
w: |||||||
V:4
 [D,F,A,]8 | [E,G,A,]8 | [F,A,]8 | B,4 C4 | A,8 || D,8 | G,4 E,4 | D,4 E,4 | A,,4 x4 || %9
[M:2/2] F,4 E,4 | D,4 C,4 | B,,4 =F,4 | E,4 D,4 || [C,A,]4 [E,^G,]4 | A,8 | [F,B,]4- [E,B,]4 | %16
 [E,A,]4 =G,4 || [B,,F,]8 | [C,E,]8 | [D,F,]8 | [E,G,]8 || [F,,^D,F,]8 | [G,,E,G,]8- | [A,,E,G,]8 | %24
 [D,,D,F,]8 || F,4 F,4 | G,4 G,4 | A,4 A,4 | (B,4 C4) | D8 || G,4 A,4 | G,4 A,4 | B,4 B,4 | %33
 (A,4 G,4) | F,4 C,4 | D,4 E,4 | F,4 B,4 | B,4 B,4 || A,4 D4 | C4 A,4 | B,4 B,4 | A,8 | A,6 A,2 | %43
 G,4 G,4 | F,4 (E,2 D,2) | E,4 A,4 || D4 C4 | B,4 G,4 | F,4 (E,2 G,2) | F,8 | A,8- | A,8 | ^G,8- | %53
 G,8 | F,4 B,,4 || E,4 F,4 | G,4 A,4- | A,8 | G,8 || F,8 | F,8 | F,8 | E,8 || F,4 ^G,4 | A,8 | %65
 B,8 | A,4 =G,4 || F,8 | C,8 | D,8 | G,8 || F,8 | G,8 | F,4 [E,G,]4 | [D,F,]8 || A,8- | A,8 | A,8 | %78
 A,4 ^G,4 | A,8- || A,8 | G,4 A,4 | B,8 | A,8 || F,8- | F,8 | F,8 | F,4 E,4- || E,4 ^G,4 | %89
 A,4- A,4 | B,8 | A,4 =G,2 E,2 || [D,F,]8 | [E,G,]8 | [F,A,]8 | [G,B,]4 [E,C]4 || [D,D]4 C4 | %97
 B,4 G,4 | F,4 [E,G,]4 | [D,F,]8 |] %100
V:5
 D,,8 | E,,8 | F,,8 | [G,,G,]8 | D,4 C,4 || B,,4 A,,4 | G,,4 A,,4 | B,,4 E,4 | A,,4 G,,4 || %9
[M:2/2] F,,4 E,,4 | D,,4 C,4 | B,,4 =F,,4 | E,,4 D,,4 || C,,4 E,,4 | A,,4 F,4 | D,4 x4 | A,,8 || %17
 x8 | x8 | x8 | x8 || x8 | x8 | x8 | x8 || D,4 D,4 | E,4 E,4 | F,4 F,4 | G,8 | D,8 || B,,4 D,4 | %31
 G,4 F,4 | B,4 E,4 | A,,8 | ^A,,4 A,,4 | B,,4 C,4 | D,4 ^D,4 | E,4 ^E,4 || F,4 ^G,4 | A,4 F,4 | %40
 D,4 E,4 | A,,8 | F,6 F,,2 | G,,4 A,,4 | B,,6 B,,2 | C,4 C,4 || D,4 (E,2 F,2) | G,4 G,,4 | %48
 A,,4 A,,4 | D,8 | D,8 | C,8 | B,,8 | C,8 | F,,4 B,,4 || E,4 F,4 | G,,4 A,,4 | =C,4 B,,4 | %58
 E,4 A,,4 || D,8 | C,8 | B,,8 | E,,8 || F,,4 ^G,,4 | A,,4 F,4 | D,4 E,4 | A,,8- || A,,8 | A,,8 | %69
 B,,8 | C,8 || ^D,8 | E,4 G,,4 | A,,8- | [D,,A,,]8 || D,8 | F,8 | B,,8 | E,8 | A,,4 B,,4 || %80
 C,4 D,4 | G,,4 F,,4 | B,,4 E,,4 | A,,4 G,,4 || F,,4 ^A,,4 | C,4 E,4 | D,4 C,4 | B,,4 E,2 D,2 || %88
 C,4 E,4 | A,4 F,4 | D,4 E,4 | A,,4 =G,,2 E,,2 || D,,8- | D,,8 | D,,8 | D,,8 || D,,4 C,4 | %97
 B,,4 G,,4 | A,,8- | [D,,A,,]8 |] %100

